X: 4349
M: 2/4
L: 1/8
K: Bb
|:!f!\
c2cc | =B2_B2 | A2_AA | G4 |\
c2cc | A>GF2 | c2cc | AFz2 |\
c2Ad | cAz2 | c2Ad | c2c2- |\
c2=B2 | _B2A2 | GABc | "_D.C."F2z2 |]


